X:58
T:Fever
C:
N:Don Stiernberg, "About Time" Tabbed by Greg Thomas
L:1/8
Q:1/4=129
M:4/4
K:C
z8 | z8 | z8 | z8 | z8 | z8 | z8 | z7/1A | {c}dc (3zdc dA z2 | cd z4 zA | {c}dc dc d3/2^d/4=d/4 c/A3/2 | 
A7/1z/c/ | dc (3zdc d2 Ac | zd4A AA | {d}^d=d cd c2 A3/2G/ | AA AA c2 A2 | z8 | 
zc2A {c}d2 c2 | zc A2 c2 c^d | e^d7/1 | g/a7/1z/ | z3/2d/ ^d=d cd3 | {d}^d=d cd cA GA | 
z8 | z8 | z8 | z8 | z8 | z8 | z8 | z8 | z8 | z8 | z8 | z8 | z8 | z8 | z8 | z8 | 
z8 | z8 | z8 | z8 | z8 | z8 | z8 | z8 | z3D E{F}E EF | ^F2 AF BA ^c[BF] | d^c [ec]d f^f =f^f | 
[g^c]^f =f^f [gc]g/f/ ed | ^f^c7/1 | ^c'a/^f/ af/(3d (3edB de | f/^f/a f/e3/2 zd eB | 
de f^f d[AD] [AD][AD] | [B2D2] z2 (3[BF]EF [BE]A | (3ABd ^c6 | a^f/d/ ^gf/d/ =g4 | 
e/f/^f/=f/ e/d/f/d/ ^c/B/A/^F/ E/=F/E/D/ | {F}^F{=F}^F4F AB | ^cc zB {^d}e{d}e zc | 
ed ef ^f2 z3/2E/ | (3FA^F =F/ED/ B,A, DB, | zB, z2 B,A, B,D | CD ^DF ^FG _B=B | 
cd ^d(3f2 {^f}(3g2=f2 d2 | {^f}g2 _ba z4 | zd'/_b/ d'/b/f/b/ g/f/^d/(3c (3_Bcd | 
c_b/^c'/ d'b4^f' | g'7/1^f' | z^d' f'd' g'2 d'_b | bc' z6 | (3DF_B (3GBc (3d^df ^f=f | 
{^f}=f^d fd c_B =Bc | d^d f^f gd =fc' | z2 _bf4z | c'^f (3^dc_B dc2_b | {_b}c'b (3f^dc df2d | 
{f}gf ^dd' c'_b fg | c'8 | z8 | z8 | z8 | z8 | C4 ^D4 | C4 ^D2 C2 | G4 B,4 | C8 | 
{e}f^d fd2f cd | zf6^d | f^d fd fd c_B | c4 zc cc | {^d}fd zf/d/ z/f3/2 cd | zf4z ^df | 
{f}^f=f ^df dc _B2 | c3/2c/ cc ^d2 c2 | z8 | z3/2^d/ fd fd3 | zf z^d f2 d^f | 
z8 | _b/c'7/1z/ | zf _gf ^df3 | ^f/=f3/2 f2 ^dc _B2 | c3c ^d2 fd | ^f=f ^df dc _Bc | 
z3c ^dc df | {f}^fc' _bf =f^d c_B | c8 | z8 | 


